X:01
T: The Dusty Miller
M: 9/8
K: Gmaj
|:B2d d2A BAG|E2A A2B cBA|B2d d2A BAG|D2G G2A BAG:|
|:B2d e2f g2a|a2A A2B cBA|B2d e2f g2a|g2e d2c BAG:|
T: The Night Before Larry Was Stretched
M: 9/8
K: Emin
|:GFE EB,E E2 G|FED DA,D FGA|GFE EB,E E2 G|FGA ABG FED:|
|:G2 B BcA B3|G2B Bcd ecA|G2 B BcA Bcd|e2 A ABG FED:|
